X: 1006
T: Fishing for Eels
N:"Collected by Ennis"
B:O'Neill's 1006
Z:Transcribed by Dan G. Petersen, dangp@post6.tele.dk
M:6/8
L:1/8
K:G
G2G dBG|BAB dBG|G2G dBG|AGA BGE|
G2G dBG|BAB def|gfe dBG|AGA BGE:|
gbg faf|ege def|gfg efg|aga bge|
gbg faf|ege def|gfe dBG|AGA BGE:|


